X: 189
Q: "Moderato."
M: 4/4
L: 1/4
K: Eb
[|\
|: "^mf"ed eB | AF GB | ed eB | "^dim."A "Repeat pp."F E2 :|
"^p"E>E EE | F>F FF | "^dim."EE E(G>F) | ED E2 |]


